source/images/icons/shortcut-vk.svg

<svg width="24" height="14" viewBox="0 0 24 14"  xmlns="http://www.w3.org/2000/svg">
<path fill-rule="evenodd" clip-rule="evenodd" d="M0.863281 0.726562C0.863281 0.726562 0.920112 3.67988 1.28843 5.08728C1.70414 6.67604 2.45356 8.32004 3.22658 9.33924C4.73093 11.3222 7.41429 12.8645 10.0129 13.3176C11.8171 13.6321 13.9574 13.7819 14.0231 13.6321C14.0888 13.4824 14.1424 12.3221 14.1424 11.2814V9.38897L14.7816 9.51011C16.4685 9.82979 17.9425 11.2795 18.7165 12.5353L19.3923 13.6321H21.5362H23.741C23.741 10.9289 21.2042 8.54363 18.6997 7.14986C18.6997 7.14986 18.9235 7.05047 19.6531 6.44942C21.4341 4.9819 22.8335 2.89731 22.8932 0.726562H20.9342H18.9752C18.0544 2.31196 16.4327 5.6109 14.1424 5.6109C14.1424 5.6109 14.1424 0.869146 14.1424 0.726562H9.75227C9.75227 0.912747 9.75227 8.87061 9.75227 8.87061C6.23876 8.87061 5.36145 2.79974 5.19502 0.726562H0.863281Z" />
</svg>

<svg viewBox="0 0 24 14" xmlns="http://www.w3.org/2000/svg"><path fill-rule="evenodd" clip-rule="evenodd" d="M.86.73s.06 2.95.43 4.36a13.03 13.03 0 0 0 1.94 4.25 11.36 11.36 0 0 0 6.78 3.98c1.8.31 3.95.46 4.01.31.07-.15.12-1.3.12-2.35v-1.9l.64.13c1.69.32 3.16 1.77 3.94 3.03l.67 1.1h4.35c0-2.71-2.54-5.1-5.04-6.49 0 0 .22-.1.95-.7 1.78-1.47 3.18-3.55 3.24-5.72h-3.91c-.93 1.58-2.55 4.88-4.84 4.88v-4.88h-4.39v8.14c-3.51 0-4.39-6.07-4.55-8.14h-4.34Z"/></svg>
